!!!COM:	Martini, Johannes
!!!CDT:	~1440///-~1497//
!!!OTL:	Textless I Fa mi re ut re
!!!AGN:	Song; Chanson
!!!SCT:	Mar3032
!!!SCA:	Mar3032
!!!voices:	3
**kern	**kern	**kern
*staff3	*staff2	*staff1
*Ivox	*Ivox	*Ivox
*I"Contra	*I"Tenor	*I"Cantus
*I'C	*I'T	*I'Cn
*clefGv2	*clefGv2	*clefG2
*k[]	*k[]	*k[]
*M2/1	*M2/1	*M2/1
*met(C|)	*met(C|)	*met(C|)
=1-	=1-	=1-
0r	0r	1.cc
.	.	4b\
.	.	4a/
=2	=2	=2
0r	0r	1g
.	.	1a
=3	=3	=3
1.c	0r	2g/
.	.	1e
4B\	.	2f/
4A/	.	.
=4	=4	=4
1G	0r	1g
1A	.	1c
=5	=5	=5
2G/	0r	1.g
1E	.	.
2F/	.	2f/
=6	=6	=6
1G	0r	2e/
.	.	2d/
2C/	.	1e
[2G/	.	.
=7	=7	=7
2G/]	0r	2d/
4F/	.	1c
4E/	.	.
1D	.	.
.	.	2B/
=8	=8	=8
1C	1.c	1c
1r	.	1r
.	2B\	.
=9	=9	=9
1F	1A	1.cc
2E/	1G	.
2G/	.	2b\
=10	=10	=10
2F/	2A/	1a
2A/	2F/	.
2G/	2G/	1g
[2c\	2E/	.
=11	=11	=11
2c\]	1D	2a/
2B\	.	2f/
[1c	1C	2g/
.	.	2e/
=12	=12	=12
2c\]	1r	1d
2B\	.	.
1A	1F	1c
=13	=13	=13
1G	2E/	0r
.	2G/	.
2A/	2F/	.
2F/	2A/	.
=14	=14	=14
2G/	2G/	1r
2E/	1c	.
1D	.	1f
.	2B\	.
=15	=15	=15
2C/	1c	2e/
2E/	.	2g/
2D/	2d\	2f/
2F/	2c\	2a/
=16	=16	=16
2C/	2e\	2g/
2F/	2f\	1cc
1G	1d	.
.	.	2b\
=17	=17	=17
2.C/	1c	1cc
4D/	.	.
2E/	2B\	1r
[2F/	2A/	.
=18	=18	=18
2F/]	2c\	1.a
2D/	1d	.
2F/	.	.
2G/	4c\	2b\
.	4B\	.
=19	=19	=19
2A/	1A	1cc
2c\	.	.
1d	2G/	2b\
.	2F/	2a/
=20	=20	=20
2r	2A/	2cc\
2G/	2.B\	1dd
1d	.	.
.	4A/	.
.	[2G/	4cc\
.	.	4b\
=21	=21	=21
1c	2G/]	1a
.	2F#i/	.
2B\	2G/	2g/
[2A/	2A/	2f/
=22	=22	=22
2A/]	2c\	2a/
2.G/	2d\	2.b\
.	1G	.
4F/	.	4a/
2E/	.	[2g/
=23	=23	=23
1D	1A	2g/]
.	.	2f#i/
1E	[1G	1g
=24	=24	=24
2C/	1G]	2g/
2.E/	.	1e
.	2r	.
4F/	.	.
2G/	[2C/	2c/
=25	=25	=25
2c\	2C/]	2e/
2A/	2D/	2f/
2G/	2E/	1g
2r	[2C/	.
=26	=26	=26
1C	2C/]	1c
.	1E	.
2.c\	.	2g/
.	2F/	2a/
4e\	.	.
=27	=27	=27
1d	1G	1b
1c	1C	1cc
=28	=28	=28
2c\	2r	1.g
1C	1c	.
2F/	[2d\	2f/
=29	=29	=29
2G/	4d\]	2e/
.	4c\	.
2A/	1c	2c/
1G	.	1d
.	2B\	.
=30	=30	=30
1C	1c	2c/
.	.	1e
2r	1G	.
2G/	.	[2d/
=31	=31	=31
2A/	2F/	2d/]
1G	2E/	1c
.	1D	.
2F/	.	2B/
=32	=32	=32
1G	[0C	1c
2.c\	.	1r
4B\	.	.
=33	=33	=33
1A	1C]	1c
2G/	1r	2d/
[2c\	.	[2e/
=34	=34	=34
2c\]	1r	2e/]
2d\	.	2f/
2c\	1c	2e/
2A/	.	4d/
.	.	4c/
=35	=35	=35
1G	2d\	1B
.	1e	.
2E/	.	2g/
2D/	2f\	2a/
=36	=36	=36
2G/	2e\	2b\
2A/	4d\	2cc\
.	4c\	.
1G	1B	2dd\
.	.	[2b\
=37	=37	=37
2E/	2G/	2b\]
2F/	2A/	2a/
2G/	2B\	2g/
2A/	2c\	4f/
.	.	4e/
=38	=38	=38
2B\	2d\	2d/
2G/	4c\	1g
.	4B\	.
1D	1A	.
.	.	2f#i/
=39	=39	=39
1d	1r	0g
2d\	1G	.
[2e\	.	.
=40	=40	=40
2e\]	2E/	1r
2d\	2F/	.
2B\	2G/	1g
[2c\	[2C/	.
=41	=41	=41
2c\]	2C/]	2e/
2A/	2D/	2f/
2G/	2.E/	2g/
2r	.	[2c/
.	4D/	.
=42	=42	=42
2E/	2E/	2c/]
2D/	2F/	2d/
[1C	1G	2.e/
.	.	4d/
=43	=43	=43
2C/]	2r	2e/
2D/	2A/	2f/
1E	2G/	1g
.	[2c\	.
=44	=44	=44
2.F/	2c\]	1a
.	2d\	.
4E/	.	.
1C	1e	2g/
.	.	[2c/
=45	=45	=45
1F	2.f\	2c/]
.	.	2d/
.	4e\	.
1E	1c	1e
=46	=46	=46
1D	2d\	2f/
.	4c\	4e/
.	4B\	4d/
2r	2A/	2c/
[2G/	2G/	[2d/
=47	=47	=47
2G/]	2B\	2d/]
2A/	2c\	1c
1G	1d	.
.	.	2B/
=48	=48	=48
0Cl	0cl	0cl
==	==	==
*-	*-	*-
!!!RDF**kern: l=long note in original notation
!!!RDF**kern: i=editorial accidental
!!!ENC:	Chris Gage 11-13-2014
!!!END:	2014/11/17/
!!!EED:	Jesse Rodin
!!!EEV:	2015/03/05/
!!!ONB:	Translated from MusicXML and edited on 2015/03/05/ by Craig Sapp
!!muse2ps: C^@{COM}^i2I150v85,85,150Q16
